X:119
T:T\'eir Abhaile
T:Go Home
T:Behind the Bush in the Garden
T:Wha'll Be King But Charlie?
R:slide
Z:id:hn-slide-119
M:6/8
L:1/8
K:Ador
c2A AGE | c2A AGE | G2E D2E | GAG EFG |
A2B c2d | eag e2d | cBA BAG | A3 A2B :|
|: c2B c2d | efg e2d | c2B c2d | e3 A2B |
c2B c2d | eag e2d | cBA BAG | A3 A2B :|

